X: 31317
T: Paddy Kelly's
R: reel
M: 4/4
K: Gmixolydian
|:dGBG DGBd|cFAF cFAc|dGBG DGGA|BdcA GABc|
dGBG DGBd|cFAF cFAc|dGBG DGGA|BdcA GABc:|
|:dgg^f g2de|=fdcA =FGAc|dgg2 g2ag|de^fg aggf|
d2gd g2ag|=fdcA =FGAc|d2BG DG3|BdcA G3F:|

